pic/icon-laser-pointer.svg

<svg xmlns="http://www.w3.org/2000/svg" width="30" height="30" viewBox="0 0 30 30">
  <path fill-rule="evenodd" d="M25,0 C27.7614237,0 30,2.23857625 30,5 L30,25 C30,27.7614237 27.7614237,30 25,30 L5,30 C2.23857625,30 0,27.7614237 0,25 L0,5 C0,2.23857625 2.23857625,0 5,0 L25,0 Z M16.951381,10.006148 C15.8451487,8.4154408 13.7047734,7.98701964 12.0853834,8.99723309 L11.9139417,9.11098782 L11.816348,9.1782931 C11.0300297,9.73253928 10.4946977,10.5787054 10.3282058,11.5305073 C10.174521,12.4090937 10.3467443,13.3112016 10.8074749,14.0672421 L10.9286464,14.253111 L17.3217023,23.4470119 C17.8721398,24.2383609 18.7122615,24.7771146 19.657229,24.9447397 C19.8026087,24.9705281 19.9486375,24.9872075 20.0945365,24.9949517 L20.3131903,24.9998885 L20.5310651,24.9915531 C21.1014527,24.9523673 21.6577496,24.7773507 22.1523989,24.4771277 L22.3604784,24.340826 L22.4567352,24.2735207 C23.2428856,23.7194998 23.7782241,22.8736904 23.9449559,21.9222029 C24.0988622,21.0439067 23.9270491,20.1419929 23.4668185,19.3859284 L23.3457737,19.2000489 L16.951381,10.006148 Z M13.0984351,10.5095915 C13.8617321,10.0753095 14.8158541,10.2572179 15.3708544,10.9207104 L15.4700958,11.0507259 L16.558,12.614 L13.498,14.772 L12.4099316,13.207187 L12.3163486,13.0591154 C11.8850365,12.2905626 12.0657009,11.3298708 12.724656,10.7710488 L12.8537824,10.6711242 L12.9513761,10.6038189 L13.0984351,10.5095915 Z M7.0863958,11.345523 C6.61239077,11.2916087 6.17536773,11.5888209 6.04021187,12.0378748 L6.01286509,12.1531864 C5.97192493,12.390721 6.02965179,12.6334493 6.17240175,12.825348 C6.29136005,12.9852636 6.46056506,13.0980549 6.65059506,13.1467559 L6.76687669,13.1681499 L7.8698192,13.2933378 C8.38283962,13.3509847 8.85211159,12.997491 8.94201299,12.4856744 C8.98336171,12.2492805 8.92582691,12.0061912 8.78303568,11.8139821 C8.66404298,11.6538078 8.49466481,11.54084 8.30441776,11.4921066 L8.18800139,11.4707109 L7.0863958,11.345523 Z M10.6077904,5.69591804 C10.3388653,5.30930082 9.82965924,5.19278828 9.42565077,5.40774571 L9.32704019,5.4684262 C9.12849183,5.60884145 8.99223201,5.82349451 8.94960445,6.06511502 C8.91408147,6.26646544 8.94600858,6.47278271 9.03844018,6.65236306 L9.10110412,6.75664921 L9.88051682,7.87795514 C10.1758066,8.28542572 10.7406496,8.3800229 11.1510385,8.09073596 C11.5298589,7.82370187 11.6484605,7.32023174 11.4448534,6.91495712 L11.3872031,6.81587785 L10.6077904,5.69591804 Z M16.5182254,5.01478863 C16.0510295,4.93183252 15.6007408,5.2054436 15.4483489,5.64574645 L15.4166198,5.75918502 L15.1946943,6.78222523 C15.1437627,7.01832555 15.1905265,7.26512898 15.3242102,7.46576537 C15.4578938,7.66640177 15.6669662,7.80356486 15.9032514,7.84564861 C16.3700591,7.92868022 16.8201602,7.65568773 16.9730018,7.21590839 L17.004857,7.10259834 L17.2267824,6.07955814 C17.2781236,5.843261 17.2315566,5.59610142 17.0978347,5.39515358 C16.9641128,5.19420575 16.754798,5.05684424 16.5182254,5.01478863 Z"/>
</svg>

<svg xmlns="http://www.w3.org/2000/svg" width="30" height="30" viewBox="0 0 30 30"><path fill-rule="evenodd" d="M25 0a5 5 0 0 1 5 5v20a5 5 0 0 1-5 5H5a5 5 0 0 1-5-5V5a5 5 0 0 1 5-5h20Zm-8.049 10.006a3.602 3.602 0 0 0-4.866-1.009l-.171.114-.098.067a3.645 3.645 0 0 0-1.488 2.353c-.153.878.019 1.78.48 2.536l.12.186 6.394 9.194a3.615 3.615 0 0 0 2.773 1.548l.218.005.218-.008a3.6 3.6 0 0 0 1.621-.515l.208-.136.097-.067a3.645 3.645 0 0 0 1.488-2.352 3.664 3.664 0 0 0-.478-2.536l-.121-.186-6.395-9.194Zm-3.853.504a1.8 1.8 0 0 1 2.273.41l.1.13 1.087 1.564-3.06 2.158-1.088-1.565-.094-.148a1.83 1.83 0 0 1 .409-2.288l.129-.1.097-.067.147-.094Zm-6.012.836a.979.979 0 0 0-1.046.692l-.027.115c-.041.238.017.48.16.672.118.16.288.273.478.322l.116.021 1.103.125a.98.98 0 0 0 1.072-.807.874.874 0 0 0-.638-.994l-.116-.021-1.102-.125Zm3.522-5.65a.916.916 0 0 0-1.182-.288l-.099.06a.929.929 0 0 0-.289 1.184l.063.105.78 1.121a.916.916 0 0 0 1.27.213.93.93 0 0 0 .294-1.176l-.058-.1-.78-1.12Zm5.91-.681a.957.957 0 0 0-1.07.63l-.031.114-.222 1.023a.893.893 0 0 0 .13.684c.133.2.342.338.578.38a.957.957 0 0 0 1.07-.63l.032-.113.222-1.023a.893.893 0 0 0-.13-.685.882.882 0 0 0-.579-.38Z"/></svg>
